X:394
T: LILLE DU ALLERSCHOENSTE STADT
N: E0323A
O: Europa, Mitteleuropa, Deutschland
R: historisches Lied, Festung Lille (1708)
M: 4/4
L: 1/8
K: Bb
 | B3FD2F2 | B2B2B2z2 |
d2d2c2z2 | e2d2c2z2 |
c2c2c2f2 | cBAGA2F2 |
c2c2c2f2 | cBAGA2F2 |
B2B2c2c2 | d2d2c2z2 | d2d2c2z2 |
f3ed2c2 | B2A2B2z2

@@@ Tune index: 4044
